AvidLuv/7dof_robotic_arm/pybullet-kinematics-dynamics-control-master/examples/results.csv
Fx,Fy,Fz,cost,q1,q2,q3,q4,q5,q6,q7,tau1,tau2,tau3,tau4,tau5,tau6,tau7,x,y,z,roll,pitch,yaw
89879915661778,-1.7185860349290603,-1.8924876046185128,2.571219552605908,0.5403128618137859,17.328624760293998,-4.149509487424406,1.5756472712940401,-0.23230458920012742,1.9827514432260043,-0.0035541799740147224,0.2753079137435781,0.28370990709840466,0.6486562696450727,0.7579457807540342,0.7311277400206931,-0.003655334075817543
0.0,0.5,0.0,4736.328183494942,2.6124379259440063,-1.4056149561319746,4.0285425905076435,-1.6078103927152017,-1.7268310760202001,-1.9037799135166422,2.567566533766282,0.7867578707231332,17.5495505072557,-4.263463757306343,1.569949859645004,-0.19039464700759437,1.9467016600448832,-0.0021803515472011512,0.2754568419336822,0.2847841382268491,0.648013368197185,0.758375817491815,0.7324519385241757,-0.0009715952188306446
0.0,1.0,0.0,4769.455259586315,2.605083118046293,-1.414076628174162,4.0127335135015665,-1.60616837239317,-1.7123577232720504,-1.8813417536695232,2.571054770642187,0.5305448227932414,17.31591279734905,-4.342367565237238,1.464734950718972,-0.14922064155646292,1.9247359141950489,-0.00481380379507353,0.275350194169939,0.2844824613807929,0.6492911121347447,0.7540107025954693,0.7288319293934433,-0.007687638840598973
0.5,0.0,0.0,4768.701935847592,2.6117481801884614,-1.4078548000389814,4.023203451588479,-1.6080082260067419,-1.724332708517585,-1.8988662573073625,2.5680834890190045,0.5659846873081783,17.527523169198773,-4.106640920357144,1.5136916625462307,-0.17578167705724496,2.0093695009810437,-0.002468275924585185,0.2760248031034671,0.2840383592003387,0.6483144434998607,0.7591807884173435,0.7328002101089721,-0.0008724477774256206
0.5,0.5,0.0,4787.196890727894,2.6065650092687522,-1.4135846907577636,4.012747136917725,-1.6064661697183737,-1.7146653013202706,-1.8835554181057312,2.570057217636539,0.4224803584725887,17.391768700846587,-4.186656968547939,1.4321261035214625,-0.13537243282017836,1.9830963994694304,-0.004242723008865291,0.2759774937263719,0.28402595478962955,0.6491829020726309,0.7558334789848187,0.7302434501399877,-0.005582229130805676
0.5,1.0,0.0,4776.756618656865,2.6058957051952594,-1.4137045032580298,4.013320087059033,-1.605122269737732,-1.7148254713803053,-1.8828792974332658,2.568985497855985,0.48795196207531255,17.45911235132136,-4.286509329326703,1.3884768829576504,-0.09321350618434569,1.9528192820403505,-0.004321790786605571,0.27603150298901236,0.2846124902070238,0.649224998672934,0.7545607709711799,0.7298242586505832,-0.006230969144104855
1.0,0.0,0.0,4835.666959720036,2.6032426279659204,-1.4190302411664444,4.001037376226189,-1.606546928223387,-1.706570436759462,-1.8701551642277725,2.5720660151899746,0.10340608426118515,17.209460147425343,-4.0149681114630855,1.3722358512426855,-0.12675458425379435,2.039134779792075,-0.005274072597349896,0.2765196956392223,0.2829321159801369,0.649936928125396,0.7554333376570914,0.7292995566111371,-0.007831433428163519
1.0,0.5,0.0,4803.903265429123,2.6059451079895695,-1.4149895990978683,4.0098298343256396,-1.6053532526351457,-1.7140085089703865,-1.8804242654316559,2.568914292967055,0.3132338293059906,17.460458858778313,-4.127436793519377,1.345457536283222,-0.08026427072424791,2.0114300583675835,-0.004249444446283369,0.2766296854047504,0.28396595344764264,0.6493774051345268,0.7557165930167453,0.7305311842954432,-0.00543463845764948
1.0,1.0,0.0,4748.389277764639,2.6121445340544907,-1.4065667727835593,4.027221255866165,-1.6043215204643793,-1.729230124749606,-1.9020237326428975,2.5631456840129743,0.7051976339609216,17.8391086417309,-4.258285374870199,1.3643199647298947,-0.03632304854297106,1.973845924648362,-0.0017460559100600723,0.2768423154365316,0.28545848786181316,0.6481579375447281,0.757630444662737,0.733386032177597,0.00012887769408048165
