AvidLuv/7dof_robotic_arm/pybullet-kinematics-dynamics-control-master/examples/results.csv
Fx,Fy,Fz,cost,best_th1,best_th2,best_th3,best_th4,best_th5,best_th6,best_th7,q1,q2,q3,q4,q5,q6,q7,tau1,tau2,tau3,tau4,tau5,tau6,tau7,x,y,z,roll,pitch,yaw
588786583,2.608517464734341,-1.4112261139464755,4.01671686542945,-1.608948313718033,-1.7166061828044086,-1.8895298568076184,2.5718286214292836,0.4982199136855483,17.287491514683943,-4.1460550527900715,1.5680654676369898,-0.23265229444091196,1.9835205303984744,-0.0038989655076768787,0.27528753395284694,0.2835887792714579,0.6488230780328209,0.7575288500703714,0.7306948700981972,-0.004473870966170698
0.0,0.5,0.0,4827.163375891127,-2.090787478367808,-2.7243805204528466,-1.0479427137225357,-1.3593733379624864,-0.8251875435896441,-1.4152241167081718,-0.009166505204824205,2.5981218324721853,-1.423384668817709,3.9935342451640126,-1.607186486525032,-1.6957864349971967,-1.8571791120223173,2.576621115276752,0.15197893592788536,16.81621090799244,-4.2161408691155815,1.4774430283572026,-0.2048406944899936,1.9438991420799856,-0.007135463934001836,0.27518243690041555,0.28288241378456414,0.6506011708448143,0.7518028206611799,0.7254626975239928,-0.013896895383319126
0.0,1.0,0.0,4810.32476593236,3.1318766956907726,-3.034617119921953,1.278509842474974,-1.9900106187870432,2.095981055208145,0.17538815110659156,2.5666003215528184,2.5985214846197766,-1.4221960583799333,3.996689884940429,-1.6058893424279936,-1.6981996928522571,-1.8599784435229545,2.5749684093471745,0.25854636069225045,16.951652539851278,-4.317265641864581,1.4339556544137608,-0.16044834093439886,1.9160858591564662,-0.006911170092367115,0.2752472403110539,0.28361195261038136,0.6504587196508785,0.7510188198080685,0.7255763592083898,-0.013578986789868581
0.5,0.0,0.0,4853.200059762687,1.6298410561136634,-3.141592653589793,-0.026785019144274447,2.2929208878373104,1.912205749771298,1.2453043774685524,0.18448959181371372,2.5952297144678407,-1.4282332685663375,3.982938956465343,-1.607294101370596,-1.6888076630554354,-1.845217542273297,2.577978846758954,-0.11758197398150028,16.607599455493943,-4.041036506332306,1.444664924567438,-0.20305455453152432,1.9886938753438423,-0.007723194693787586,0.2757730965239199,0.28184623315131074,0.6512423322285136,0.7516255792041725,0.7246760232023941,-0.015712540938460157
0.5,0.5,0.0,4846.226220117785,0.3046895396166458,-1.4901573227166918,-2.579044688816866,-0.491250585770465,2.8433919542855186,-3.1281958838683237,1.8609226717319025,2.5970777803818925,-1.4252851498125916,3.9896031551245645,-1.6060557595632934,-1.6942512955523235,-1.852711818981391,2.5756280785815893,0.03519119668696183,16.844419278929966,-4.150488508379679,1.39652312752223,-0.15285787363411518,1.9681230557398313,-0.0071697066879906485,0.27584230479630234,0.28276896640688876,0.6508577575902296,0.7514903309212566,0.7255283892872655,-0.014116549530271619
0.5,1.0,0.0,4782.356031804614,2.0682360913827704,-0.9528481442202357,1.7158148594297016,0.9705903664246076,-2.4342672135973906,0.98142755231778,-0.48322725371035347,2.6050449467094823,-1.4147621620074733,4.011235497938173,-1.605083409189714,-1.71296273966465,-1.8801011148123414,2.5695368648396153,0.44763836287880077,17.41373851307718,-4.285255483890016,1.382264337364772,-0.09365089135524896,1.953207103018943,-0.004618338127859889,0.27601382322046786,0.28449957270619225,0.6493803318275839,0.7541609271731926,0.7294030191092012,-0.007014622525647381
1.0,0.0,0.0,4852.309719567538,-2.497799878181657,-2.49893118001241,1.7011203296847928,-2.310176279225761,3.05153918595588,-2.4524456391179,3.029380171663691,2.5988921014739432,-1.4243695940386463,3.990457718360804,-1.606357791667853,-1.697269428375311,-1.8560526694416766,2.574529310554639,-0.06397893225093894,16.94919789215868,-3.993612014082906,1.362564545440593,-0.13691298436054047,2.0288116764268427,-0.0065254837769140525,0.2764696953892044,0.2823574298548445,0.6506930939334568,0.7534492360260567,0.7271367047756508,-0.011723358455336577
1.0,0.5,0.0,4853.788387035222,0.6761856807403688,2.8670896723637282,-3.141592653589793,-3.141592653589793,1.6239872319567548,2.000923684461811,3.141592653589793,2.593912655510367,-1.4297657941531816,3.9805219403810423,-1.6048290792076148,-1.6882055054306249,-1.8413485968860577,2.5756883580540992,-0.15788460427227397,16.713921760676183,-4.078777224967105,1.3203292544804064,-0.1079912845255489,1.9835599552428849,-0.007695632434107265,0.2764923993358145,0.28237638837249296,0.6514714269259408,0.7502009145209693,0.7244891573239998,-0.01625347153303494
1.0,1.0,0.0,4819.5488318558,0.21108623895449208,-2.9765847784887463,3.094521741617517,0.9848431019132251,0.22593601620148007,0.617667703397804,0.6088311398866026,2.6011792338371387,-1.42016997814237,4.000392289645816,-1.6038271736466625,-1.705280610037184,-1.866439164685997,2.570359918117942,0.20299363064239367,17.30183750796098,-4.210495405595499,1.2800593302349463,-0.04386658637359733,1.9774147109174225,-0.005652376014449775,0.2766160417772089,0.28401200918714475,0.6501502270995853,0.7525504870075843,0.7280901704556304,-0.009785658248176655
